!!!OTL: MAEDCHEN HAST DU LUST ZU TRUTZEN
!!!ARE: Europa, Mitteleuropa, Deutschland; France, Elsass
!!!SCT: E0644A
!!!YEM: Copyright 1995, estate of Helmut Schaffrath.
**kern
*ICvox
*Ivox
!! Mixed meters:  3/4; 4/4
*M3/4
*k[b-e-]
*B-:
{8.f
16f
=1
4.b-
8d
8.g
16f
=2
4f
4e-
4r
=3
8.a
16cc
4b-}
{8.f
16f
=4
4.b-
8d
8.g
16f
=5
4f
4e-
4r
=6
8.a
16cc
4b-}
{8f
8f
=7
4a
4a
8g
8f
=8
4b-
4b-}
{8b-
8dd
=9
4cc
4cc
8cc
8ee-
=10
4dd
8dd}
{8cc
8b-
8a
=11
4.g
8a
8.b-
16g
=12
2f}
{8b-
8dd
=13
*M4/4
2ff
2ee-
=14
2dd
4r}
==
!!!AGN: Liebes - Lied
!!!ONB: ESAC (Essen Associative Code) Database: ERK2
!!!AMT: irregular
!!!AIN: vox
!!!EED: Helmut Schaffrath
!!!EEV: 1.0
*-
